packages/match-icons/twilio/svg/info.svg

<svg fill="none" height="16" viewBox="0 0 16 16" width="16" xmlns="http://www.w3.org/2000/svg"><path clip-rule="evenodd" d="m8 0c4.4183 0 8 3.58172 8 8 0 4.4183-3.5817 8-8 8-4.41828 0-8-3.5817-8-8 0-4.41828 3.58172-8 8-8zm.8 7.2h-1.6v4.8h1.6zm0-3.2h-1.6v1.6h1.6z" fill="#394762" fill-rule="evenodd"/></svg>

<svg width="16" height="16" viewBox="0 0 16 16" fill="none" xmlns="http://www.w3.org/2000/svg">
<path fill-rule="evenodd" clip-rule="evenodd" d="M8 0C12.4183 0 16 3.58172 16 8C16 12.4183 12.4183 16 8 16C3.58172 16 0 12.4183 0 8C0 3.58172 3.58172 0 8 0ZM8.8 7.2H7.2V12H8.8V7.2ZM8.8 4H7.2V5.6H8.8V4Z" fill="#394762"/>
</svg>
